X: 1
T: Cashmere Shawl
R: reel
M: 4/4
L: 1/8
K: Dmaj
|B2Bc BAFA | BABc  e2cA| BdcA BAFf |1 afec dBcA :|2  afec d3e|
|f2fa fede | fAdf  e2de | f2fa fede | fgaf e2de | 
|f2fa fede | fAdf  e2de | faa2 fbb2 | afec dBcA ||


